!!!COM: Music21
!!!OTL: Jota de Foxado
!!!OMV: pezas_jotas_jota-de-foxado_jota-de-foxado-partitura.musicxml
**kern
*part1
*staff1
*I"Bagpipes
*I'Bag
*clefG^2
*k[]
*M3/4
=1
!LO:TX:a:t=Prestissimo
*MM220
!LO:TX:a:t=[quarter]=220
4r
8eeL
8ffJ
8eeL
8ddJ
=||
8eeL
8ffJ
8eeL
8ddJ
[4cc
=
4cc]
8ffL
8ggJ
8ffL
8eeJ
=
8ffL
8ggJ
8ffL
8eeJ
[4dd
=
4dd]
8ggL
8aaJ
8ggL
8ffJ
=
4gg
4ff
4ee
=
4ff
4ee
4dd
=
8eeL
8ffJ
8eeL
8ddJ
[4cc
!!linebreak:original
=
4cc]
8eeL
8ffJ
8eeL
8ddJ
!!linebreak:original
=
8eeL
8ffJ
8eeL
8ddJ
[4cc
=
4cc]
8ffL
8ggJ
8ffL
8eeJ
=
8ffL
8ggJ
8ffL
8eeJ
[4dd
=
4dd]
8ggL
8aaJ
8ggL
8ffJ
=
4gg
4ff
4ee
=
4ff
4ee
4dd
=||
8eeL
8ffJ
8eeL
8ddJ
[4cc
=
2.cc_
=||
4cc]
4cc
4dd
=
2.ee
!!linebreak:original
=
4ee
4dd
4cc
!!linebreak:original
=
8ffL
8ggJ
8ffL
8eeJ
[4dd
=
4dd]
12ggL
12aa
12ggJ
8ffL
8ggJ
=
2aa
4gg
=
2aa
4gg
=
4ff
4ee
4dd
=
8eeL
8ffJ
8eeL
8ddJ
[4cc
=
4cc]
4cc
4dd
=
2.ee
=
4ee
4dd
4cc
=
8ffL
8ggJ
8ffL
8eeJ
[4dd
!!linebreak:original
=
4dd]
12ggL
12aa
12ggJ
8ffL
8ggJ
!!pagebreak:original
=
2aa
4gg
=
2aa
4gg
=
4ff
4ee
4dd
=
8eeL
8ffJ
8eeL
8ddJ
[4cc
=
4cc]
8eeL
8ffJ
8eeL
8ddJ
=||
8eeL
8ffJ
8eeL
8ddJ
[4cc
=
2.cc_
=
8cc]
8r
2r
==
*-
!!!system-decoration: s1,s2
